src/assets/icons/ftic/house-with-door.svg

<svg xmlns="http://www.w3.org/2000/svg" viewBox="0 0 45 40">
  <path d="M24.091.665c-.304-.289-.838-.662-1.594-.662-.754 0-1.287.366-1.591.655l-20.656 19.944c-.291.374-.804 1.398 1.721 1.398h3.029v14.819c0 1.758 1.863 3.181 3.677 3.181h8.323v-15h11v15h8.317c1.815 0 3.683-1.423 3.683-3.181v-14.819h3.069c2.36 0 2.012-.937 1.724-1.34l-20.702-19.995z" ng-attr-fill="{{ color }}"/>
</svg>

<svg xmlns="http://www.w3.org/2000/svg" viewBox="0 0 45 40"><path d="M24.091.665c-.304-.289-.838-.662-1.594-.662-.754 0-1.287.366-1.591.655L.25 20.602C-.041 20.976-.554 22 1.971 22H5v14.819C5 38.577 6.863 40 8.677 40H17V25h11v15h8.317C38.132 40 40 38.577 40 36.819V22h3.069c2.36 0 2.012-.937 1.724-1.34L24.091.665z"/></svg>
